X:1
T:Title
%%score ( 1 2 ) { 3 | 4 }
L:1/8
Q:1/4=110
M:4/4
K:F
V:1 treble nm="Grand Piano, Soprano"
V:2 treble 
V:3 bass nm="Choir Pad, Freiburg, Germany folk song"
V:4 bass 
V:1
 [DA]2 G-[^CG] [DF]2 [Ec]2 | [Fc]2 [Fd]2 [FA]2 [Fc]2 | [Gc]2 [FA]2 [EA]2 [DF]2 | %3
w: By~German~folk~song,~16th~Century * * * *|||
 [DG]2 G-[DG] [^CA]4 | [A,F]2 [CG]2 [CA]2 [CG]2 | [CF]2 [^CE]2 D2 [B,=C]2 | %6
w: |||
 [A,F]2 [DG]2 [FA]2 [DG]2 | [DF]2 [^CE]2 D4- | D4 z4 |] %9
w: |||
V:2
 z2 .D2 z4 | x8 | x8 | z2 .E2 z4 | x8 | x8 | x8 | x8 | x8 |] %9
V:3
 F,2 G,2 A,2 B,2 | C2 B,2[K:treble] C2 A,2 | C2 C2 A,2[K:bass] A,2 | G,2 G,2 E,4 | %4
 F,2 E,2 F,2 E,2 | F,2 G,2 F,2 E,2 | F,2 B,2 C2 B,2 | A,2 G,2 F,4- | F,4 z4 |] %9
V:4
 D,2 E,2 F,2 G,2 | A,2 z2 F,2 F,2 | E,2 F,2 ^C,2 D,2 | B,,2 B,,2 A,,4 | D,2 C,2 F,,2 C,B,, | %5
 A,,2 A,,2 B,,2 C,2 | D,2 B,,2 F,,2 G,,2 | A,,2 A,,2 D,4- | D,4 z4 |] %9

